src/assets/ikoner/medical-cross.svg

<?xml version="1.0" encoding="UTF-8"?>
<svg width="40px" height="40px" viewBox="0 0 40 40" version="1.1" xmlns="http://www.w3.org/2000/svg" xmlns:xlink="http://www.w3.org/1999/xlink">
    <title>Outline/40-health/medical-cross</title>
    <desc>Created with Sketch.</desc>
    <g id="-----↳-Versjon-10" stroke="none" stroke-width="1" fill="none" fill-rule="evenodd">
        <g id="Avtale-landingsside-for-kandidat-og-AG" transform="translate(-311.000000, -955.000000)" fill="#3E3832">
            <g id="Outline/40-health/medical-cross" transform="translate(311.000000, 955.000000)">
                <path d="M24.1666667,39.9999999 L15.8333333,39.9999999 C15.3733333,39.9999999 15,39.6266667 15,39.1666667 L15,28.6583334 L5.90499994,33.9116667 C5.71499994,34.0216667 5.48499994,34.0500001 5.27333327,33.9950001 C5.05833327,33.9383334 4.8766666,33.7983334 4.7666666,33.6066667 L0.599999919,26.39 C0.368333252,25.9916667 0.504999919,25.4816667 0.90499992,25.2516667 L9.99999996,19.9999999 L0.90499992,14.745 C0.506666585,14.515 0.369999918,14.005 0.599999919,13.6066666 L4.7666666,6.38999994 C4.87499994,6.19833328 5.05833327,6.05833328 5.27166661,6.00166661 C5.48666661,5.94499994 5.71333327,5.97499994 5.90499994,6.08499994 L15,11.3366666 L15,0.833333253 C15,0.373333252 15.3733333,-8.33333343e-08 15.8333333,-8.33333343e-08 L24.1666667,-8.33333343e-08 C24.6266667,-8.33333343e-08 25,0.373333252 25,0.833333253 L25,11.3383333 L34.0983334,6.08499994 C34.2883334,5.97666661 34.5133334,5.94499994 34.7316667,6.00166661 C34.9450001,6.05833328 35.1266667,6.19833328 35.2366667,6.38999994 L39.4033334,13.6066666 C39.6350001,14.005 39.4983334,14.515 39.0983334,14.745 L30,19.9999999 L39.0983334,25.2516667 C39.2900001,25.3616667 39.4283334,25.545 39.4866667,25.7583334 C39.5433334,25.9716667 39.5133334,26.2 39.4016667,26.39 L35.2350001,33.6066667 C35.1266667,33.7983334 34.9433334,33.9383334 34.7300001,33.9950001 C34.5116667,34.0516667 34.2883334,34.0216667 34.0966667,33.9116667 L25,28.6583334 L25,39.1666667 C25,39.6266667 24.6266667,39.9999999 24.1666667,39.9999999 Z M16.6666667,38.3333334 L23.3333333,38.3333334 L23.3333333,27.215 C23.3333333,26.9166667 23.4933333,26.6416667 23.75,26.4933334 C24.0066667,26.345 24.3266667,26.345 24.5833334,26.4933334 L34.2100001,32.0516667 L37.5433334,26.2783334 L27.9166667,20.7216667 C27.66,20.5733333 27.5,20.2983333 27.5,20 C27.5,19.7016667 27.66,19.4266667 27.9166667,19.2783333 L37.5433334,13.7183333 L34.2100001,7.94499995 L24.5833334,13.5033333 C24.3266667,13.6516666 24.0066667,13.6516666 23.75,13.5033333 C23.4933333,13.355 23.3333333,13.08 23.3333333,12.7816666 L23.3333333,1.66666659 L16.6666667,1.66666659 L16.6666667,12.78 C16.6666667,13.0783333 16.5066667,13.3533333 16.25,13.5016666 C15.9933333,13.65 15.6733333,13.65 15.4166666,13.5016666 L5.79333327,7.94499995 L2.45999993,13.7183333 L12.0833333,19.2783333 C12.34,19.4266667 12.5,19.7016667 12.5,20 C12.5,20.2983333 12.34,20.5733333 12.0833333,20.7216667 L2.45999993,26.2783334 L5.79333327,32.0516667 L15.4166666,26.4933334 C15.6733333,26.345 15.9933333,26.345 16.25,26.4933334 C16.5066667,26.6416667 16.6666667,26.9166667 16.6666667,27.215 L16.6666667,38.3333334 Z" id="line/medical-cross"></path>
            </g>
        </g>
    </g>
</svg>

<svg width="40" height="40" xmlns="http://www.w3.org/2000/svg"><path d="M24.167 40h-8.334a.834.834 0 01-.833-.833V28.658l-9.095 5.254a.844.844 0 01-.632.083.826.826 0 01-.506-.388L.6 26.39a.83.83 0 01.305-1.138L10 20 .905 14.745A.834.834 0 01.6 13.607L4.767 6.39a.823.823 0 01.505-.388.84.84 0 01.633.083L15 11.337V.833c0-.46.373-.833.833-.833h8.334c.46 0 .833.373.833.833v10.505l9.098-5.253a.844.844 0 01.634-.083.828.828 0 01.505.388l4.166 7.217a.83.83 0 01-.305 1.138L30 20l9.098 5.252a.829.829 0 01.303 1.138l-4.166 7.217a.823.823 0 01-.505.388.838.838 0 01-.633-.083L25 28.658v10.509c0 .46-.373.833-.833.833zm-7.5-1.667h6.666V27.215a.834.834 0 011.25-.722l9.627 5.559 3.333-5.774-9.626-5.556a.834.834 0 010-1.444l9.626-5.56-3.333-5.773-9.627 5.558a.834.834 0 01-1.25-.722V1.668h-6.666V12.78a.834.834 0 01-1.25.722L5.793 7.945 2.46 13.718l9.623 5.56a.834.834 0 010 1.444L2.46 26.278l3.333 5.774 9.624-5.559a.834.834 0 011.25.722v11.118z" fill="#3E3832" fill-rule="evenodd"/></svg>
